X:148
T:Engine 143.tef
C:
N:Transcribed by John G Gardinsky
R:bluegrass
L:1/8
Q:1/4=175
M:3/4
K:Bb
z3F DC | "Bb"[D4B,4] [D2B,2] | [D4B,4] C2 | [DC]D z2 D2 | D4 C2 | "Eb"[EG,]B, z2 C2 | 
[E4B,4] C2 | "Bb"[D4B,4] [D2B,2] | [D4B,4] [D2B,2] | [DC]D z2 F2 | [B4F4] [B2F2] | 
[B4F4] G2 | [B4F4] D2 | "F"[F4C4] [F2C2] | [F4C4] [FC]D | [F4C4] [F2C2] | [F4C4] F2 | 
"Bb"[DC]D z2 [F2B,2] | [F4B,4] [FC]D | [F4B,4] [F2B,2] | [F4B,4] C2 | "Eb"G,B, z2 C2 | 
[E4B,4] [E2G,2] | "Bb"[D4B,4] [D2B,2] | [D4B,4] [D2B,2] | [DG,]B, z2 [D2B,2] | 
[D4B,4] C2 | [DC]D z2 [D2D2] | [D4D4] B,2 | "F"[F4C4] [F2C2] | [FC]D F2 C2 | "Bb"B,2 D2 FG | 
[B6D6] | z6 | z6 | z6 | z6 | z6 | z6 | z6 | z6 | z6 | z6 | z6 | z6 | z6 | z6 | 
z6 | z6 | z6 | z6 | z6 | z6 | z6 | z6 | z6 | z6 | z6 | z6 | z6 | z6 | z6 | z6 | 
z6 | z6 | z6 | z6 | z6 | z6 | z6 | z6 | z6 | z6 | z6 | z6 | z6 | z6 | z6 | z6 | 
z6 | z6 | z6 | z6 | z6 | z6 | z6 | z6 | z6 | z6 | z6 | z6 | z6 | z6 | z6 | z6 | 
z6 | z6 | 


